X:4350
L:1/8
Q:1/4=120
M:2/2
K:D
"^Fast" F A2 A A2 Ac | BAFA dedB | FAAB A2 AB | AFDF EDB,D | A,CDF A2 Ac | BAFA dedB | FAAB A2 AB | 
 AFDF ED D2 || DFEF DFEF | DFAB AFDC | DFEF DFED | A,DDE DB,A,B, | DFEF DFEF | DFAB AFDC | 
 DFEF DFED | A,DDE D2 || !slide![DD]2- | [DD]2 FD EDFE | DEFD EDB,C | [DD]2 FD EFAB | AFDF EDB,C | 
 [DD]2 FD EDFE | DEFD EDB,C | [DD]2 FD EFAB | AFDF D4 |: A6 (a2 | b2) (ab d'2) (b2 | ([Aa]6) A)b | 
 afdf e(d [df]2) :: ([d-e] [df]2) ([d-e] [df]2) fg | fedf e(d [df]2) | 
 ([d-e] [df]2) ([d-e] [df]2) fg | afdf e(d [df]2) | ([d-e] [df]2) ([d-e] [df]2) fg | fedf edBd | 
 A(B/c/d)e fgab | afdf e(d [df]2) :|

